X: 1
T: He Keeps Me Singing
C: Words: Luther B. Bridgers, 1910. 
C: Music: 'He Keeps Me Singing' or 'Melody of Love' Hans Engelmann, 1903.
C: Setting: "The Revival No. 6", Luther B. Bridgers, 1910. 
C: copyright: public domain.  This score is a part of the Open Hymnal Project, 2015 Revision.
S: Music source: "Tabernacle Hymns, Issue 2", 1921 Hymn 13.
M: 4/4 % time signature
L: 1/4 % default length
%%staves (S1V1 S1V2) | (S2V1 S2V2) 
V: S1V1 clef=treble 
%%MIDI beat 127 125 110 1
V: S1V2 
%%MIDI beat 127 125 110 1
V: S2V1 clef=bass 
%%MIDI beat 127 125 110 1
V: S2V2 
%%MIDI beat 127 125 110 1
K: Ab % key signature
%
%%MIDI program 1 0 % Piano 1
%%MIDI program 2 0 % Piano 1
%%MIDI program 3 0 % Piano 1
%%MIDI program 4 0 % Piano 1
%
% 1
[V: S1V1] [Q:1/4=100] c/ c/ =B/ c/ d c | c B F2 | G/ A/ =A/ B/ e d | (c2 d) z |
w: 1.~There's with- in my heart a mel- o- dy Je- sus whis- pers sweet and low, * 
w: 2.~All my life was wrecked by sin and strife, Dis- cord filled my heart with pain, * 
w: 3.~Feast- ing on the rich- es of His grace, Rest- ing 'neath His shel- t'ring wing, * 
w: 4.~Though some- times He leads through wa- ters deep, Tri- als fall a- cross the way, * 
w: 5.~Soon He's com- ing back to wel- come me, Far be- yond the star- ry sky; * 
[V: S1V2] E/ E/ =D/ E/ F E | =D D D2 | E/ F/ ^F/ G/ G E | E3 x |
[V: S2V1] A,/ A,/ A,/ A,/ A, A, | A, A, A,2 | B,/ B,/ B,/ B,/ B, G, | (A,2 G,) z |
[V: S2V2] A,,/ A,,/ A,,/ A,,/ A,, A,, | B,, B,, B,,2 | E,/ E,/ E,/ E,/ E, E, | E,3 x |
% 5
[V: S1V1] E/ c/ =B/ c/ d c | c B F2 | G/ e/ d/ G/ c B | A3 z |
w: "Fear not, I am with thee, peace, be still," In all of life's ebb and flow. 
w: Je- sus swept a- cross the bro- ken strings, Stirred the slum- b'ring chords a- gain. 
w: Al- ways look- ing on His smi- ling face, That is why I shout and sing. 
w: Though some- times the path seems rough and steep, See His foot- prints all the way. 
w: I shall wing my flight to worlds un- known, I shall reign with Him on high. 
[V: S1V2] C/ E/ =D/  E/ F E | =D D D2 | E/ E/ E/ E/ E D | C3 x |
[V: S2V1] A,/ A,/ A,/ A,/ A, A, | A, A, A,2 | B,/ G,/ G,/ B,/ A, G, | A,3 z |
[V: S2V2] A,,/ A,,/ A,,/ A,,/ A,, A,, | B,, B,, B,,2 | E,/ E,/ E,/ E,/ E, E, | A,,3 x |
% 9
[V: S1V1] E F G A | d2 G z | e B e =B | c3 z |
w: Je- sus, Je- sus, Je- sus,\- Sweet- est name I know, 
[V: S1V2] C C C E | E2 E x | G G G G | A3 x |
[V: S2V1] A, A, A, A,  | G,2 B, z | B, E B, E | E3 z |
[V: S2V2] A,, A,, A,, C, | B,,2 E, x | E, E, E, E, | A,3 x |
% 13
[V: S1V1] E F G A | B2 F z | !sintro!G/ e/ d/ G/ c B | A3 z !eintro!|]
w: Fills my ev- 'ry long- ing, Keeps me sing- ing as I go. 
[V: S1V2] C C C E | F2 D x | E/ E/ E/ E/ E D | C3 x |]
[V: S2V1] A, A, A, A, | A,2 B, z | B,/ G,/ G,/ B,/ A, G, | A,3 z |]
[V: S2V2] A,, A,, A,, C, | D,2 D, x | E,/ E,/ E,/ E,/ E, E, | A,,3 x |]


